X: 12462
T: Farewell To Chernobyl
R: reel
M: 4/4
K: Dminor
"Dm"D2 DF ADFA|DFAD FAFD|"Am"A2 Ac eAce|AceA dAFE|
"Bb"D2 DF ADFA|DFAD FAD=B|"C"c2 Gc EcGe|1 fedc dcAF:|2 fedc dcAc||
|:"Dm"d2 fd gdfd|d2 fg gfdc|"Bb"B2 fB gBfB|"C"efef dGBA|
[1"Dm"d2 fd gdfd|d2 fg gdfg|"Bb"aAAa "Am"gAAg|"Bb"fAAf "C"eABA:|
[2"Dm"d2 fA dfdA|"Bb"B2 fB dfdB|"C"c2 gc egcg|agfe fgef|

